X: 20220
T: Joe Bann's
R: barndance
M: 4/4
K: Dmajor
DCDE FAAA|GEFD EDB,A,|DCDE FAAA|Bdce d4|
DCDE FAAA|GEFD EDB,A,|B,DDE FAAA|Bdce d4||
defd dBAA|BddB AFFF|defd dBAA|Bdce d4|
defd dBAA|BddB AFFF|DCDE FAAA|Bdce d4||

